brandFactory_export/1.Light/Servicio tecnico para movil_1Light.svg

<?xml version="1.0" encoding="UTF-8"?>
<svg width="24px" height="24px" viewBox="0 0 24 24" version="1.1" xmlns="http://www.w3.org/2000/svg" xmlns:xlink="http://www.w3.org/1999/xlink">
    <title>1.Light/Servicio tecnico para movil_1Light</title>
    <g id="Symbols" stroke="none" stroke-width="1" fill="none" fill-rule="evenodd">
        <g id="1.Light/Servicio-tecnico-para-movil_1Light" fill="#5CB615" fill-rule="nonzero">
            <path d="M20.102521,5.59552404e-13 C22.4991597,5.59552404e-13 23.6655462,1.18319328 23.6655462,3.61344538 L23.6655462,20 C23.6655462,21.2470588 23.3831933,22.1411765 22.7983193,22.7327731 C22.2134454,23.3243697 21.3327731,23.6134454 20.102521,23.6134454 L11.4806723,23.6134454 C10.2504202,23.6134454 9.36638655,23.3243697 8.7815126,22.7327731 C8.19663866,22.1411765 7.91428571,21.2470588 7.91428571,20 L7.91395173,15.7 L7.57478992,16.0403361 C7.6205042,16.3845378 7.61458824,16.7308908 7.55532101,17.0707899 L7.50084034,17.3243697 C7.12436975,18.7764706 5.81344538,19.7915966 4.31092437,19.7915966 C4.02184874,19.7915966 3.73613445,19.7546218 3.45714286,19.6806723 C3.34285714,19.6504202 3.23865546,19.589916 3.15462185,19.5058824 C2.89243697,19.2436975 2.89243697,18.8168067 3.15462185,18.5546218 L3.15462185,18.5546218 L4.05882353,17.6504202 L3.94789916,16.8605042 L3.15798319,16.7462185 L2.25378151,17.6504202 C2.1697479,17.7344538 2.06554622,17.794958 1.9512605,17.8252101 C1.59159664,17.9193277 1.22184874,17.707563 1.12773109,17.3478992 C0.979831933,16.8 0.979831933,16.2218487 1.1210084,15.6705882 C1.49747899,14.2184874 2.80840336,13.2033613 4.31092437,13.2033613 C4.46218487,13.2067227 4.61680672,13.2168067 4.76806723,13.2369748 L4.76806723,13.2369748 L7.91695173,10.088 L7.91764706,3.61344538 C7.91764706,1.14957983 9.05042017,5.59552404e-13 11.4806723,5.59552404e-13 L20.102521,5.59552404e-13 Z M20.0991597,0.672268908 L11.4806723,0.672268908 C9.42689076,0.672268908 8.58991597,1.52268908 8.58991597,3.61344538 L8.58895173,9.416 L10.5630252,7.44201681 C10.5173109,7.09781513 10.5232269,6.75146218 10.5824941,6.41156303 L10.6369748,6.15798319 C11.0134454,4.70588235 12.3243697,3.6907563 13.8268908,3.6907563 C14.112605,3.6907563 14.3983193,3.72773109 14.6806723,3.80504202 C14.794958,3.83529412 14.8991597,3.89579832 14.9831933,3.97983193 C15.2453782,4.24201681 15.2453782,4.66890756 14.9831933,4.93109244 L14.9831933,4.93109244 L14.0789916,5.83529412 L14.189916,6.62521008 L14.9798319,6.73613445 L15.8840336,5.83193277 C15.9680672,5.74789916 16.0722689,5.68739496 16.1865546,5.65714286 C16.5462185,5.56302521 16.9159664,5.77478992 17.010084,6.13445378 C17.1579832,6.68235294 17.1579832,7.2605042 17.0168067,7.81176471 C16.6403361,9.26386555 15.3294118,10.2789916 13.8268908,10.2789916 C13.6756303,10.2756303 13.5210084,10.2655462 13.3697479,10.2453782 L13.3697479,10.2453782 L8.58595173,15.028 L8.58655462,20 C8.58655462,21.0621849 8.80504202,21.8016807 9.25882353,22.2621849 C9.71260504,22.7226891 10.4352941,22.9445378 11.4773109,22.9445378 L20.0991597,22.9445378 C21.1411765,22.9445378 21.8672269,22.7226891 22.3176471,22.2621849 C22.7680672,21.8016807 22.989916,21.0621849 22.989916,20 L22.989916,3.61344538 C22.989916,1.55294118 22.1260504,0.672268908 20.0991597,0.672268908 Z M15.789916,18.8033613 C16.394958,18.8033613 16.7882353,19.1226891 16.7882353,19.805042 C16.7882353,20.1344538 16.697479,20.3764706 16.5361345,20.5411765 C16.3613445,20.7193277 16.1058824,20.8067227 15.789916,20.8067227 C15.4739496,20.8067227 15.2184874,20.7193277 15.0436975,20.5411765 C14.8823529,20.3764706 14.7915966,20.1310924 14.7915966,19.805042 C14.794958,19.1226891 15.1882353,18.8033613 15.789916,18.8033613 Z M13.8268908,4.36302521 C13.594958,4.36302521 13.3663866,4.39327731 13.1445378,4.45378151 C11.7462185,4.82689076 10.9159664,6.26554622 11.292437,7.66386555 L11.292437,7.66386555 L4.98655462,13.9697479 C4.54285714,13.8487395 4.07226891,13.8487395 3.62857143,13.9697479 C2.2302521,14.3462185 1.4,15.7848739 1.77647059,17.1831933 L1.77647059,17.1831933 L2.91932773,16.0403361 L4.54285714,16.2722689 L4.77478992,17.892437 L3.63193277,19.0352941 C4.07563025,19.1563025 4.54621849,19.1563025 4.98991597,19.0352941 C6.38823529,18.6588235 7.21848739,17.2201681 6.84201681,15.8218487 L6.84201681,15.8218487 L13.1512605,9.51932773 C13.594958,9.64033613 14.0655462,9.64033613 14.5092437,9.51932773 C15.907563,9.14285714 16.7378151,7.70420168 16.3613445,6.30588235 L16.3613445,6.30588235 L15.2184874,7.4487395 L13.594958,7.21680672 L13.3630252,5.59327731 L14.5058824,4.45042017 C14.2840336,4.39327731 14.0554622,4.36302521 13.8268908,4.36302521 Z" id="Servicio-tecnico-para-movil_1Light"></path>
        </g>
    </g>
</svg>

<svg width="24" height="24" viewBox="0 0 24 24" xmlns="http://www.w3.org/2000/svg"><path d="M20.103 0c2.396 0 3.563 1.183 3.563 3.613V20c0 1.247-.283 2.141-.868 2.733-.585.591-1.465.88-2.695.88H11.48c-1.23 0-2.115-.289-2.7-.88-.584-.592-.867-1.486-.867-2.733v-4.3l-.34.34c.047.345.04.69-.019 1.03l-.054.254a3.295 3.295 0 01-4.044 2.357.674.674 0 01-.303-1.126l.905-.905-.111-.79-.79-.114-.904.904a.671.671 0 01-1.126-.302 3.295 3.295 0 013.64-4.11v-.001l3.149-3.149V3.613C7.918 1.15 9.05 0 11.482 0h8.622zm-.004.672h-8.618c-2.054 0-2.891.85-2.891 2.941l-.001 5.803 1.974-1.974a3.39 3.39 0 01.02-1.03l.054-.254a3.295 3.295 0 014.044-2.353.674.674 0 01.303 1.126l-.905.904.11.79.79.111.905-.904a.671.671 0 011.126.302 3.295 3.295 0 01-3.64 4.11v.001l-4.784 4.783V20c0 1.062.219 1.802.673 2.262.454.46 1.176.683 2.218.683H20.1c1.042 0 1.768-.222 2.219-.683.45-.46.672-1.2.672-2.262V3.613c0-2.06-.864-2.94-2.89-2.94zm-4.31 18.131c.606 0 1 .32 1 1.002 0 .33-.092.571-.253.736-.175.178-.43.266-.746.266s-.572-.088-.746-.266c-.162-.165-.252-.41-.252-.736.003-.682.396-1.002.998-1.002zm-1.962-14.44a2.618 2.618 0 00-2.534 3.3L4.986 13.97a2.623 2.623 0 00-3.21 3.213l1.142-1.143 1.624.232.232 1.62-1.143 1.143a2.623 2.623 0 003.21-3.213l6.31-6.303a2.623 2.623 0 003.21-3.213l-1.144 1.143-1.623-.232-.232-1.624 1.143-1.143a2.726 2.726 0 00-.68-.087z" fill="#5CB615" fill-rule="nonzero"/></svg>
